assets/Ophiuchus/Flat/ophiuchus_flat.svg

<svg width="32" height="32" viewBox="0 0 32 32" fill="none" xmlns="http://www.w3.org/2000/svg">
<path d="M2 6C2 3.79086 3.79086 2 6 2H26C28.2091 2 30 3.79086 30 6V26C30 28.2091 28.2091 30 26 30H6C3.79086 30 2 28.2091 2 26V6Z" fill="#8D65C5"/>
<path d="M11 8C11 7.44772 10.5523 7 10 7C9.44771 7 9 7.44772 9 8V12.4518C7.13095 12.7828 5.39939 13.8031 4.2004 15.3995C3.86873 15.8411 3.95785 16.4679 4.39946 16.7996C4.84106 17.1313 5.46792 17.0422 5.79959 16.6006C6.61105 15.5201 7.75261 14.7966 9 14.4943V18C9 21.8623 12.1377 25 16 25C19.8623 25 23 21.8623 23 18V17.5582C24.869 17.2273 26.6006 16.207 27.7996 14.6106C28.1313 14.169 28.0421 13.5421 27.6005 13.2104C27.1589 12.8788 26.5321 12.9679 26.2004 13.4095C25.3889 14.4899 24.2474 15.2134 23 15.5158V8C23 7.44772 22.5523 7 22 7C21.4477 7 21 7.44772 21 8V15.6368C20.5528 15.5841 20.1069 15.4773 19.6715 15.3138L13.0315 12.8238C12.3665 12.5742 11.6831 12.4222 11 12.3628V8ZM11 14.3732C11.4472 14.4259 11.8935 14.5329 12.3289 14.6964L18.9689 17.1863C19.6339 17.436 20.3169 17.5879 21 17.6472V18C21 20.7577 18.7577 23 16 23C13.2423 23 11 20.7577 11 18V14.3732Z" fill="white"/>
</svg>

<svg xmlns="http://www.w3.org/2000/svg" width="32" height="32" fill="none"><path fill="#8D65C5" d="M2 6a4 4 0 0 1 4-4h20a4 4 0 0 1 4 4v20a4 4 0 0 1-4 4H6a4 4 0 0 1-4-4V6Z"/><path fill="#fff" d="M11 8a1 1 0 1 0-2 0v4.452a7.667 7.667 0 0 0-4.8 2.947 1 1 0 1 0 1.6 1.202A5.666 5.666 0 0 1 9 14.494V18c0 3.862 3.138 7 7 7s7-3.138 7-7v-.442a7.667 7.667 0 0 0 4.8-2.947 1 1 0 0 0-1.6-1.202 5.667 5.667 0 0 1-3.2 2.107V8a1 1 0 1 0-2 0v7.637a5.662 5.662 0 0 1-1.328-.323l-6.64-2.49A7.669 7.669 0 0 0 11 12.363V8Zm0 6.373c.447.053.893.16 1.329.323l6.64 2.49c.665.25 1.348.402 2.031.461V18c0 2.758-2.242 5-5 5s-5-2.242-5-5v-3.627Z"/></svg>
